rospo-newyear-dark/symbolic/status/battery-missing-symbolic.svg

<svg height="16" width="16" xmlns="http://www.w3.org/2000/svg"><path d="m6 1v1h-3v12c0 .55.446 1 1 1h8c .554 0 1-.45 1-1v-12h-3v-1zm2 4c1.105 0 2 .8954 2 2 0 1.105-.895 2-2 2v1h-1v-2h1c .552 0 1-.448 1-1 0-.5523-.448-1-1-1s-1 .4477-1 1h-1c0-1.1046.895-2 2-2zm-1 6h1v1h-1z" fill="#d3dae3"/></svg>

<svg xmlns="http://www.w3.org/2000/svg" width="16" height="16" version="1.1">
 <path style="fill:#d3dae3" d="M 6,1 V 2 H 3 V 14 C 3,14.55 3.446,15 4,15 H 12 C 12.554,15 13,14.55 13,14 V 2 H 10 V 1 Z M 8,5 C 9.105,5 10,5.8954 10,7 10,8.105 9.105,9 8,9 V 10 H 7 V 8 H 8 C 8.552,8 9,7.552 9,7 9,6.4477 8.552,6 8,6 7.448,6 7,6.4477 7,7 H 6 C 6,5.8954 6.895,5 8,5 Z M 7,11 H 8 V 12 H 7 Z"/>
</svg>
